X:0
T:The Unicyle
C:Copyright 2010 Caz Lewis
K:G
L:1/8
M:2/4
G(g g)e|d>e d/>B/G|d>e d/>B/G|d/(B/B/)e/ d/>B/A|G (g g)e|d>e d/>B/G|B>B B/>G/A|1 G6:|2 G3F|
|:EF GA|B2e2|d>e d/>B/G|d/(B/B/)e/ d/>B/A|GA Bd|e2g2|B<B B/>G/A|1G3F:|2 G4|
